!! 00000] TT[WS
!!!OTL: Zhai guozi
!!!ARE: Asia, China,ÿShanxi Wutai
!! Ethnic Group: Han
!! WI, 74
!!!SCT: J0089
!!!YEM: Copyright 1995, estate of Helmut Schaffrath.
**kern
*ICvox
*Ivox
*M2/4
*k[b-]
*F:
{8f
16f
16d
8cc
16cc
16cc
=1
8ff
16ff
16dd
8cc
16cc
16cc
=2
8g
8f
8f
8d
=3
16cc
16dd
16a
16g
4f}
=4
{16g
16g
16g
16a
8.cc
16d
=5
8.f
16d
4c}
=6
{16g
16g
16a
16g
4f
=7
16g
16g
16g
16a
16cc
16cc
16cc
16d
=8
8.f
16d
4c}
==
!!!AGN: Xiaodiao. Laodong, Shouhuo
!!!ONB: ESAC (Essen Associative Code) Database: CHINA
!!!AMT: simple duple
!!!AIN: vox
!!!EED: Helmut Schaffrath
!!!EEV: 1.0
*-
